X:1
T:Von Gott Will Ich Nicht Lassen
T:Von Gott Will Ich Nicht Lassen
T:Christliche Tischgesänge (Erfur
T:Public Domain Courtesy of the Cyber Hymnal™
C:Christliche Tischgesänge (Erfur
Z:Public Domain
Z:Courtesy of the Cyber Hymnal™
%%score ( 1 2 ) ( 3 4 )
L:1/8
Q:1/4=115
M:4/4
K:F
V:1 treble 
V:2 treble 
V:3 bass 
V:4 bass 
V:1
 [DG]2 | [DG]2 [DA]2 [DB]2 [EG]2 | [FA]4 [DF]2 [DF]2 | [EG]2 [DG]2 [CA]2 [CA]2 | [=B,D]6 [DG]2 | %5
 [DG]2 [DA]2 [DB]2 [EG]2 | [FA]4 [DF]2 [DF]2 | [EG]2 [DG]2 [CA]2 [CA]2 | [=B,D]6 [Dd]2 | %9
 [Fd]2 [_Ec]2 [DB]2 [CA]2 | [DB]6 [CA]2 | [FB]2 [_Ec]2 [Dd]2 [FB]2 | c4 [FA]2 [FA]2 | %13
 [FB]2 [FA]2 [EG]2 [DG]2 | [EA]4 [DF]2 [A,D]2 | [CE]2 [DG]2 [_EG]2 [D^F]2 | [DG]6 |] %17
V:2
 x2 | x8 | x8 | x8 | x8 | x8 | x8 | x8 | x8 | x8 | x8 | x8 | F2 E2 x4 | x8 | x8 | x8 | x6 |] %17
V:3
 [G,B,]2 | [G,B,]2 [^F,A,]2 G,2 [C,C]2 | [F,,C]4 [B,,B,]2 [D,A,]2 | %3
 [C,C]2 [B,,G,]2 [A,,G,]2 [A,,^F,]2 | [G,,G,]6 [G,B,]2 | [G,B,]2 [^F,A,]2 G,2 [C,C]2 | %6
 [F,,C]4 [B,,B,]2 [D,A,]2 | [C,C]2 [B,,G,]2 [A,,G,]2 [A,,^F,]2 | [G,,G,]6 [B,,F,]2 | %9
 [B,,B,]2 [C,G,]2 F,2 [F,,F,]2 | [B,,F,]6 F,2 | [D,F,]2 [C,A,]2 [B,,B,]2 [D,F,]2 | %12
 G,2 C2 [F,C]2 [F,C]2 | [B,,D]2 [F,C]2 [C,C]2 [B,,D]2 | (D2 ^C2) [D,A,]2 [D,F,]2 | %15
 [C,G,]2 [B,,G,]2 [C,C]2 [D,A,]2 | [G,,=B,]6 |] %17
V:4
 x2 | x4 G,2 x2 | x8 | x8 | x8 | x4 G,2 x2 | x8 | x8 | x8 | x4 F,2 x2 | x6 F,2 | x8 | C,4 x4 | x8 | %14
 A,,4 x4 | x8 | x6 |] %17

